X:1
T:O Day So Wondrous
T:O Day So Wondrous
T:Harold Marlow
T:Harold Marlow, 1899
T:Public Domain Courtesy of the Cyber Hymnal™
C:Harold Marlow
Z:Public Domain
Z:Courtesy of the Cyber Hymnal™
%%score ( 1 2 ) 3
L:1/8
Q:1/4=82
M:3/8
K:C
V:1 treble 
V:2 treble 
V:3 bass 
V:1
 [EG][Ec]>[EG] | [FB]2 [FA] | [DF][FB]>[DF] | [^DA]2 [EG] | [CE][EA]>[CE] | [DG]2 [DF] | %6
w: 1.~O day so|won- drous,|We take thee|to us,|And wear thy|glo- ry|
w: 2.~Be- hold a-|bout us,|Be- neath, a-|bove us,|All na- ture|trem- bles|
w: 3.~Then join our|voic- es|In hap- py|chor- us,|His an- gels|watch us|
 [B,D][B,G]>[B,F] | [CE]3 | [EG][Ec]>[EG] | [FB]2 [FA] | [DF][FB]>[DF] | [^DA]2 [EG] | %12
w: In all our|hearts;|Thou giv- est|glad- ness,|Thou sooth- est|sad- ness,|
w: Throb- bing with|life;|We sing con-|fess- ing|God’s full- est|bless- ing,|
w: And with us|sing;|They are a-|bout us,|Tho’ far a-|bove us,|
 [^CE][CA]>[CE] | [DG]2 [DF] | [B,D][B,E]>[B,D] | C3 ||"^Refrain" !>![CE]3 | !>![EA]3 | %18
w: Thro’ thy bright|sun- shine,|All care de-|parts.|||
w: O day so|ho- ly,|Calm- ing all|strife.|Sing,|sing,|
w: And like the|sun- shine,|God’s bless- ing|bring.|||
 [CE][EA]>[CE] | [B,F]2 [B,G] | !>![B,F]3 | !>![FB]3 | [DF][FB]>[FA] | [EG]2 z | [EG]3 | [Ec]3 | %26
w: ||||||||
w: sing of His|glo- ry;|Sing,|sing,|sing while we|may;|God|gives,|
w: ||||||||
 [Ge][Gc]>[FA] | [EG]2 [EG] | [FB]3 | [^DA]3 | [FG][FA]>[FB] | [Ec]2 z |] %32
w: ||||||
w: God gives the|sun- shine,|He|gives,|He gives the|day!|
w: ||||||
V:2
 x3 | x3 | x3 | x3 | x3 | x3 | x3 | x3 | x3 | x3 | x3 | x3 | x3 | x3 | x3 | C3 || x3 | x3 | x3 | %19
 x3 | x3 | x3 | x3 | x3 | x3 | x3 | x3 | x3 | x3 | x3 | x3 | x3 |] %32
V:3
 [C,G,][C,G,]>[C,G,] | [D,G,]2 [D,G,] | [G,,G,][G,,G,]>[G,,G,] | [C,^F,]2 [C,G,] | %4
 [C,G,][C,G,]>[C,G,] | [B,,G,]2 [B,,G,] | [G,,G,][G,,G,]>[G,,G,] | [C,G,]3 | [C,G,][C,G,]>[C,G,] | %9
 [D,G,]2 [D,G,] | [G,,G,][G,,G,]>[G,,G,] | [C,^F,]2 [C,F,] | [A,,A,][A,,A,]>[A,,A,] | %13
 [D,A,]2 [D,A,] | [G,,G,][G,,G,]>[G,,F,] | [C,E,]3 || !>![C,G,]3 | !>![C,C]3 | [C,G,][C,C]>[C,G,] | %19
 [D,G,]2 [D,G,] | !>![G,,G,]3 | !>![D,G,]3 | [G,,G,][G,,G,]>[G,,G,] | [C,G,]2 z | [C,G,]3 | %25
 [C,G,]3 | [C,C][E,C]>[F,C] | [C,C]2 [C,C] | [F,C]3 | [^F,C]3 | [G,B,][G,C]>[G,D] | [C,C]2 z |] %32

